!!!!SEGMENT: 074-1-Sam-005.krn
!!!COM: Chopin, Fryderyk
!!!OTL: Was ein junges mädchen liebt.
!!!OPS: Op. 74
!!!PTL: 16 Polnische Lieder
!!!PPR: Schlesinger
!!!PPP: Berlin
!!!NIFC-rismID: BRAK
!!!NIFC-shelfmark: 6138/n
!!!OMD: Allegro.
!!!OMD: M. M. [quarter-dot] = 72.
!!!system-decoration: (s1){(s2,s3)}
**kern	**kern	**dynam	**kern	**text	**dynam
*part2	*part2	*part2	*part1	*part1	*part1
*staff3	*staff2	*	*staff1	*	*
*	*I"PIANO.	*	*I"SINGSTIMME.	*	*
*clefF4	*clefG2	*	*clefG2	*	*
*k[f#c#g#]	*k[f#c#g#]	*	*k[f#c#g#]	*	*
*A:	*A:	*	*A:	*	*
*M6/8	*M6/8	*	*M6/8	*	*
=1	=1	=1	=1	=1	=1
*^	*	*	*	*	*
!	!	!LO:TX:b:Bi:t=legato.	!	!	!	!
!	!	!	!LO:DY:rj	!	!	!
4B	[<2.E	(>4dd 4g#/	p	2.rdd	.	.
8c#	.	8a#X 8f##X)	.	.	.	.
4d	.	(>4b 4g#	.	.	.	.
8A#X	.	8cc# 8f##)/	.	.	.	.
=2	=2	=2	=2	=2	=2	=2
4B	2.E]	(>4dd 4g#/	.	2.rdd	.	.
8c#	.	8a#X 8f##X)	.	.	.	.
4d	.	(>4b 4g#	.	.	.	.
8A#X	.	8cc#/ 8f##)	.	.	.	.
*v	*v	*	*	*	*	*
=3	=3	=3	=3	=3	=3
.	(<8qee/	.	.	.	.
!	!LO:S:s=1:note:problem:note-level slur	!	!	!	!
[>2.B [<2.E	[>2.dd) [<2.g#/	.	2.rdd	.	.
=4	=4	=4	=4	=4	=4
4.B] 4.E]	4.dd] 4.g#]/	.	2.rdd	.	.
4r	4r	.	.	.	.
8r	8r	.	.	.	.
!LO:TX:t=P:nie wyświetla się podwójna kreska taktowa:problem	!	!	!	!	!
=5|!	=5|!	=5|!	=5|!	=5|!	=5|!
*ped	*	*	*	*	*
!	!LO:TX:a:Bi:t=e sempre legatiss.	!	!	!	!
!	!	!	!	!	!LO:HP:a
!	!	!LO:DY:a	!	!	!LO:DY:a:rj
!	!LO:TX:a:t=P:problem:mixed beam	!	!	!	!
4.AA 4.AAA\	8E</L	p	4a	Bäch-	mf
.	8c#\	.	.	.	.
.	8a\J	.	8b	-lein	.
!	!LO:TX:a:t=P:problem:mixed beam	!	!	!	!
4.AA 4.AAA\	8E</L	.	8cc#	lie-	.
.	8c#\	.	8d#X	-bet	.
*Xped	*	*	*	*	*
.	8aJ\	.	8e	die	.
=6	=6	=6	=6	=6	=6
*ped	*	*	*	*	*
!	!LO:TX:a:t=P:problem:mixed beam	!	!	!	!LO:HP:a
4.AA 4.AAA\	8D#X</L	.	(<4g#	Blu-	.
.	8B#X</	.	.	.	.
*Xped	*	*	*	*	*
.	8aJ\	.	8f#)	-men-	.
*ped	*	*	*	*	*
!	!	!	!LO:TX:a:t=P:w źródle jakby podwójna kreska pomiędzy -men i Au'=':problem	!	!
!	!LO:TX:a:t=P:problem:mixed beam	!	!	!	!
4.AA 4.AAA\	8E</L	.	4e	-Au,	.
.	8c#\	.	.	.	.
*Xped	*	*	*	*	*
.	8aJ\	.	8r	.	.
!!LO:LB:g=original
=7	=7	=7	=7	=7	=7
*ped	*	*	*	*	*
!	!LO:TX:a:t=P:problem:mixed beam	!	!	!	!
4.AA 4.AAA\	8E</L	.	8bL	Reh-	.
.	8d\	.	8f#J	.	.
.	8g#\J	.	8a	-lein	.
!	!LO:TX:a:t=P:problem:mixed beam	!	!	!	!
4.AA 4.AAA\	8E</L	.	8g#	lie-	.
.	8d\	.	8f#	-bet	.
*Xped	*	*	*	*	*
.	8g#\J	.	8e	die	.
=8	=8	=8	=8	=8	=8
*ped	*	*	*	*	*
!	!LO:TX:a:t=P:problem:mixed beam	!	!	!	!
4.AA 4.AAA\	8E</L	.	[>4.ee	Wäl-	.
.	8c#\	.	.	.	.
.	8a\J	.	.	.	.
!	!LO:TX:a:t=P:problem:mixed beam	!	!	!	!
4.AA 4.AAA\	8E</L	.	4ee]	.	.
.	8c#\	.	.	.	.
*Xped	*	*	*	*	*
.	8a\J	.	8cc#	-der,	.
=9	=9	=9	=9	=9	=9
*ped	*	*	*	*	*
!	!LO:TX:a:t=P:problem:mixed beam	!	!	!	!
4.AA 4.AAA\	8E</L	.	8eeL	Vög-	.
.	8c#\	.	8aJ	.	.
.	8a\J	.	8b	-lein	.
!	!LO:TX:a:t=P:problem:mixed beam	!	!	!	!
4.AA 4.AAA\	8E</L	.	8cc#	lie-	.
.	8c#\	.	8d#X	-bet	.
*Xped	*	*	*	*	*
.	8a\J	.	8e	den	.
=10	=10	=10	=10	=10	=10
*ped	*	*	*	*	*
!	!LO:TX:a:t=P:problem:mixed beam	!	!	!	!
4.AA 4.AAA\	8D#X</L	.	4g#	Him-	.
.	8B#X</	.	.	.	.
*Xped	*	*	*	*	*
.	8a\J	.	8f#	-mel	.
*ped	*	*	*	*	*
!	!	!	!	!	!LO:HP:a
!	!LO:TX:a:t=P:problem:mixed beam	!	!	!	!
4.AA 4.AAA\	8E</L	.	8eL	blau,	<
.	8c#\	.	8g#J	.	.
*Xped	*	*	*	*	*
.	8a\J	.	8a	doch	[
=11	=11	=11	=11	=11	=11
*ped	*	*	*	*	*
!	!	!	!	!	!LO:HP:a
!	!LO:TX:a:t=P:problem:mixed beam	!	!	!	!
2.FF#\	8A</L	.	4cc#	Mägd-	>
.	8c#\	.	.	.	.
.	8a\J	.	8b	-lein,	.
!	!LO:TX:a:t=P:problem:mixed beam	!	!	!	!
.	8A</L	.	8aL	was	.
.	8c#\	.	8g#J	.	]
*Xped	*	*	*	*	*
.	8a\J	.	8f#	denn	.
!!LO:LB:g=original
=12	=12	=12	=12	=12	=12
*ped	*	*	*	*	*
!	!LO:TX:a:t=P:problem:mixed beam	!	!	!	!
[>4.C# [<4.CC#\	8G#</L	.	4e#X	liebst	.
.	8c#\	.	.	.	.
.	8e#X\J	.	8#g	du?	.
8C#;] 8CC#]\	8g#/;>	.	8r;>	.	.
*Xped	*	*	*	*	*
.	.	.	.	.	.
4r	4r	.	8.en	Liebst	.
.	.	.	16e	den	.
=13	=13	=13	=13	=13	=13
!	!	!	!LO:TX:a:Bi:t=scherzando.	!	!
8E	8r	.	16g#	Son-	.
.	.	.	16f#	-nen-	.
4r	8g#L 8d	.	8.e	-schein,	.
.	8g#J 8d	.	.	.	.
.	.	.	16ee	liebst	.
8E	8r	.	16dd#X	Mond	.
.	.	.	16ee	und	.
4r	8g#L 8d	.	8b	Ster-	.
.	8g#J 8d	.	8ee	-ne,	.
=14	=14	=14	=14	=14	=14
8A	8r	.	16cc#	Tanz	.
.	.	.	16b	und	.
4r	8aL 8e 8c#	.	8a	Spiel	.
.	8aJ 8e 8c#	.	8cc#	hast	.
8AA	8r	.	16b#X	du	.
.	.	.	16cc#	so	.
4r	8aL 8f# 8c#	.	8a	ger-	.
.	8aJ 8f# 8c#	.	8f#	ne,	.
!!LO:PB:g=original
=15	=15	=15	=15	=15	=15
8BB	8r	.	16d#X	heu-	.
.	.	.	16f#	-te	.
4r	8anL 8d#X 8B	.	8.a#X	liebst	.
.	8aJ 8d# 8B	.	.	.	.
.	.	.	16b	du	.
8BB	8r	.	16cc#	Lust-	.
.	.	.	16b	-ge-	.
4r	8aL 8d# 8B	.	8a#	-sän-	.
.	8aJ 8d# 8B	.	8b	-ge,	.
=16	=16	=16	=16	=16	=16
*ped	*	*	*	*	*
4.E	8r	.	16g#	lie-	.
.	.	.	16an	-best	.
.	4g# 4dn 4B	.	8b	morg-	.
!	!	!	!LO:TX:a:Bi:t=rallent.	!	!
.	.	.	8e	-gen	.
*Xped	*	*	*	*	*
4r	4r	.	8.fn;>^<	Trau-	.
.	.	.	16e	-er-	.
8rF	8r	.	16d#X	-klän-	.
.	.	.	16e	-ge;	.
=17	=17	=17	=17	=17	=17
*ped	*	*	*	*	*
!	!	!	!LO:TX:B:a:t=Tempo.	!	!
4.AA 4.AAA\	8E<L	.	8eeL	doch	.
!	!	!	!	!	!LO:DY:a
!	!	!	!	!	!LO:HP:a
.	8c#	.	8aJ	.	<
.	8aJ	.	8b	ein	.
4.AA 4.AAA\	8E<L	.	8cc#	Tag	.
.	8c#	.	8d#X	wird	.
*Xped	*	*	*	*	*
.	8aJ	.	8e	er-	.
.	.	.	.	.	[
!!LO:LB:g=original
=18	=18	=18	=18	=18	=18
*ped	*	*	*	*	*
!	!	!	!	!	!LO:HP:a
4.AA 4.AAA\	8D#X<L	.	(<4g#	-schei-	>
.	8B#<X	.	.	.	.
*Xped	*	*	*	*	*
.	8aJ	.	8f#)	.	.
*ped	*	*	*	*	*
4.AA 4.AAA\	8E<L	.	8e	-nen,	.
.	8c#	.	8g#	dann	]
*Xped	*	*	*	*	*
.	8aJ	.	8a	liebst	.
=19	=19	=19	=19	=19	=19
*ped	*	*	*	*	*
4.AA 4.AAA\	8E<L	.	(<8bL	du	.
.	8d	.	8f#J)	.	.
.	8g#J	.	8a	nur	.
4.AA 4.AAA	8E<L	.	8g#	Ei-	.
.	8d	.	8f#	-nen,	.
*Xped	*	*	*	*	*
.	8g#J	.	8e	nur	.
=20	=20	=20	=20	=20	=20
*ped	*	*	*	*	*
4.AA	8E<L	.	[<4.e	Ei-	.
.	8c#	.	.	.	.
.	8aJ	.	.	.	.
4.AA	8E<L	.	8eL]	.	.
.	8c#	.	8aJ	.	.
*Xped	*	*	*	*	*
.	8aJ	.	8cc#	-nen,	.
=21	=21	=21	=21	=21	=21
*ped	*	*	*	*	*
4.AA	8E<L	.	(>8eeL	doch	.
.	8c#	.	8aJ)	.	.
.	8aJ	.	8b	ein	.
4.AA	8E<L	.	8cc#	Tag	.
.	8c#	.	8d#X	wird	.
*Xped	*	*	*	*	*
.	8aJ	.	8e	er-	.
=22	=22	=22	=22	=22	=22
*ped	*	*	*	*	*
4.AA\	8D#X<L	.	(<4g#	-schei-	.
.	8B#X<	.	.	.	.
*Xped	*	*	*	*	*
.	8aJ	.	8f#)	.	.
*ped	*	*	*	*	*
4.AA	8E<L	.	8eL	-nen,	.
.	8c#	.	8g#J	.	.
*Xped	*	*	*	*	*
.	8aJ	.	8a	dann	.
!!LO:LB:g=original
=23	=23	=23	=23	=23	=23
*ped	*	*	*	*	*
4.D	8BLn	.	8b	liebst	.
.	8f#	.	8cc#	du	.
*Xped	*	*	*	*	*
.	8aJ	.	8b	nur	.
*ped	*	*	*	*	*
4.E	8BL	.	8g#	Ei-	.
.	8d	.	8f#	-nen,	.
*Xped	*	*	*	*	*
.	8g#J	.	8g#	nur	.
=24	=24	=24	=24	=24	=24
*ped	*	*	*	*	*
!	!	!	!	!	!LO:HP:a
4.AA	8c#L	.	4b/	Ei-	>
.	8e	.	.	.	.
.	8aJ	.	8a	-nen.	]
8AAL	(>16eeLL	<	4r	.	.
.	16ff#	.	.	.	.
8E	16gg#	.	.	.	.
.	16aa	.	.	.	.
8c#J	16bb	.	8r	.	.
*Xped	*	*	*	*	*
.	16ccc#JJ)	[	.	.	.
=25	=25	=25	=25	=25	=25
*^	*	*	*	*	*
8c# 8Gn 8E	4.ryy	8aa#XL	.	2.rdd	.	.
4d 4F# 4D^>	.	(>16bbL	.	.	.	.
.	.	16aan	.	.	.	.
.	.	16ggnyX	.	.	.	.
.	.	16ff#JJ)	.	.	.	.
4E	8EL	8ee#XL	.	.	.	.
.	8G#X	(>16ff#Lt>	.	.	.	.
.	.	16een	.	.	.	.
8ryy	8dJ	16dd	.	.	.	.
.	.	16bJJ)	.	.	.	.
*v	*v	*	*	*	*	*
=26	=26	=26	=26	=26	=26
*ped	*	*	*	*	*
8AAL	4a	.	2.rdd	.	.
8E	.	.	.	.	.
8c#J	(>16cc#LL	.	.	.	.
.	16ddJJ	.	.	.	.
8AAL	16eeLL	.	.	.	.
.	16ff#	.	.	.	.
8E	16gg#	.	.	.	.
.	16aa	.	.	.	.
8c#J	16bb	.	.	.	.
*Xped	*	*	*	*	*
.	16ccc#JJ)	.	.	.	.
=27	=27	=27	=27	=27	=27
*^	*	*	*	*	*
8c# 8Gn 8E	4.ryy	8aa#XL	.	2.rdd	.	.
4d 4F# 4D^>	.	(>16bbL	.	.	.	.
.	.	16aan	.	.	.	.
.	.	16gg#yX	.	.	.	.
.	.	16ff#JJ)	.	.	.	.
4E	8EL	8ee#XL	.	.	.	.
.	8G#X	(>16ff#LT>	.	.	.	.
.	.	16een	.	.	.	.
8ryy	8dJ	16dd	.	.	.	.
.	.	16bJJ)	.	.	.	.
*v	*v	*	*	*	*	*
=28	=28	=28	=28	=28	=28
*ped	*	*	*	*	*
8AAL	4a	.	2.rdd	.	.
8E	.	.	.	.	.
8c#J	8r	.	.	.	.
4AA	4r	.	.	.	.
*Xped	*	*	*	*	*
8r	8r	.	.	.	.
==	==	==	==	==	==
*-	*-	*-	*-	*-	*-
!!title: @{OTL}; @{OPS} @{ONM} publisher: @{PPR}
!!!RDF**kern: > = above
!!!RDF**kern: < = below
!!!RDF**kern: N = linked
!!!RDF**dynam: < = "cresc." fontstyle="bold-italic"
!!!RDF**dynam: > = "dim." fontstyle="bold-italic"
!!!ENC: Wojciech Jakubiak-Danek
!!!END: 2020-01-29
!!!EED: Mateusz Mrugas
!!!EST: revision finished 2020-02-03
